X:13 
T:Denis Doody's (polka)
C:file ID mally/13den_d
B:Mally.HIP.069
Q:120
R:polka
L:1/8
M:2/4
K:D
z|DF/A/ BA|d>c dc|B>A Bc|BA F/G/A|
DF/A/ BA|d>c dc|B>A B/c/d|ed d :|
e|fA eA|dA cA|B>A Bc|BA FA|
fA eA|dA cA|B>A B/c/d|ed de|
fg/f/ ef/e/|de c/B/A|B>A Bc|BA F/G/A|
DF/A/ BA|d>c dc|B>A B/c/d|ed d2 |]

